Origami/64x64/apps/moserial.svg

<svg width="64" height="64" version="1" xmlns="http://www.w3.org/2000/svg">
 <rect x="12" y="54" width="40" height="6" style="opacity:.2"/>
 <path d="m26 35h12l6 24h-24z" style="fill:#4f4f4f"/>
 <path transform="matrix(.3463047 .59981732 -.69260938 .3998782 43.912652 -1.3206769)" d="m23.723231 13.979746 3.032011 5.251599 3.032012 5.251599h-6.064024-6.064024l3.032012-5.251599z" style="fill:#9c9c9c"/>
 <path d="m46.939144 39.412328c-9.226558 5.326956-21.024516 2.165702-26.351472-7.060856-5.326955-9.22656-2.165702-21.024518 7.060856-26.351474z" style="opacity:.2"/>
 <path d="m46.939144 38.412328c-9.226558 5.326956-21.024516 2.165702-26.351472-7.060856-5.326955-9.22656-2.165702-21.024517 7.060856-26.351473z" style="fill:#686868"/>
 <circle transform="matrix(.5 .8660254 -.8660254 .5 0 0)" cx="37.954" cy="-27.739" r="3" style="opacity:.2"/>
 <circle transform="matrix(.5 .8660254 -.8660254 .5 0 0)" cx="37.088" cy="-28.239" r="3" style="fill:#cccccc"/>
 <rect x="12" y="53" width="40" height="6" style="fill:#4f4f4f"/>
 <path d="m27.648438 5c-6.415717 3.7041156-9.889243 10.537388-9.625 17.458984 0.090973-6.572639 3.518939-12.933648 9.625-16.458984l18.851562 32.650391c0.146283-0.079557 0.294406-0.154539 0.439453-0.238282l-19.291015-33.412109z" style="fill:#ffffff;opacity:.1"/>
</svg>

<svg xmlns="http://www.w3.org/2000/svg" width="64" height="64" version="1">
 <rect style="opacity:0.2" width="40" height="6" x="12" y="54"/>
 <path style="fill:#4f4f4f" d="m 26,35 12,0 6,24 -24,0 z"/>
 <path style="fill:#9c9c9c" d="m 23.723231,13.979746 3.032011,5.251599 3.032012,5.251599 -6.064024,0 -6.064024,0 3.032012,-5.251599 z" transform="matrix(0.3463047,0.59981732,-0.69260938,0.3998782,43.912652,-1.3206769)"/>
 <path style="opacity:0.2" d="M 46.939144,39.412328 C 37.712586,44.739284 25.914628,41.57803 20.587672,32.351472 15.260717,23.124912 18.42197,11.326954 27.648528,5.9999982 Z"/>
 <path style="fill:#686868" d="M 46.939144,38.412328 C 37.712586,43.739284 25.914628,40.57803 20.587672,31.351472 15.260717,22.124912 18.42197,10.326955 27.648528,4.9999992 Z"/>
 <circle style="opacity:0.2" cx="37.954" cy="-27.739" r="3" transform="matrix(0.5,0.8660254,-0.8660254,0.5,0,0)"/>
 <circle style="fill:#cccccc" cx="37.088" cy="-28.239" r="3" transform="matrix(0.5,0.8660254,-0.8660254,0.5,0,0)"/>
 <rect style="fill:#4f4f4f" width="40" height="6" x="12" y="53"/>
 <path style="opacity:0.1;fill:#ffffff" d="M 27.648438 5 C 21.232721 8.7041156 17.759195 15.537388 18.023438 22.458984 C 18.114411 15.886345 21.542377 9.5253355 27.648438 6 L 46.5 38.650391 C 46.646283 38.570834 46.794406 38.495852 46.939453 38.412109 L 27.648438 5 z"/>
</svg>
